icons/headphones-filled.svg

<svg id="strib-headphones-filled" viewBox="0 0 16 16" width="16" height="16" fill="currentcolor" class="strib-icon strib-headphones-filled" xmlns="http://www.w3.org/2000/svg">
  <path d="M11.852 14.907q-.165.018-.335.018h-.326a.87.87 0 0 1-.871-.87V8.761v5.294c0 .48.39.87.87.87h.327q.17 0 .335-.018m2.094-5.879V7.891zm-11.892 0 .075-.084zm2.888 5.887a1 1 0 0 1-.132.01h-.327c-1.822 0-3.299-1.575-3.299-3.517v-.036.073c.019 1.925 1.489 3.48 3.299 3.48h.327a1 1 0 0 0 .132-.01M1.184 9.337V7.891zm13.707 2.183c-.056 1.927-1.54 3.48-3.373 3.48h-.327a.945.945 0 0 1-.945-.945V8.761c0-.522.423-.945.945-.945h.327c.916 0 1.746.389 2.354 1.018v-.943a5.87 5.87 0 0 0-11.742 0v.943a3.27 3.27 0 0 1 2.354-1.018h.327c.522 0 .945.423.945.945v5.294A.945.945 0 0 1 4.81 15h-.327c-1.856 0-3.355-1.592-3.374-3.553V7.891a6.89 6.89 0 1 1 13.782 0z"/>
</svg>

<svg id="strib-headphones-filled" viewBox="0 0 16 16" width="16" height="16" fill="currentcolor" class="strib-icon strib-headphones-filled" xmlns="http://www.w3.org/2000/svg">
  <path d="M11.852,14.907C11.742,14.919 11.63,14.925 11.517,14.925L11.191,14.925C10.71,14.925 10.32,14.535 10.32,14.055L10.32,8.761C10.32,8.355 10.599,8.014 10.976,7.918C10.599,8.014 10.32,8.355 10.32,8.761L10.32,14.055C10.32,14.535 10.71,14.925 11.19,14.925L11.517,14.925C11.63,14.925 11.742,14.919 11.852,14.907ZM13.946,9.028C13.946,9.028 13.946,9.028 13.946,9.028L13.946,7.891C13.946,4.607 11.284,1.945 8,1.945C7.569,1.945 7.148,1.991 6.743,2.079C7.148,1.991 7.569,1.945 8,1.945C11.284,1.945 13.946,4.607 13.946,7.891L13.946,9.028ZM2.054,9.028L2.054,9.028C2.444,8.577 2.942,8.234 3.506,8.048C2.978,8.222 2.507,8.534 2.129,8.944C2.104,8.971 2.079,9 2.054,9.028ZM4.942,14.915C4.899,14.921 4.855,14.925 4.81,14.925L4.483,14.925C2.661,14.925 1.184,13.35 1.184,11.408L1.184,11.389L1.184,11.372L1.184,11.372L1.184,11.393L1.184,11.408L1.184,11.445C1.203,13.37 2.673,14.925 4.483,14.925L4.81,14.925C4.855,14.925 4.899,14.921 4.942,14.915ZM1.184,9.337L1.184,7.891C1.184,4.702 3.374,2.025 6.332,1.281C3.374,2.025 1.184,4.702 1.184,7.891L1.184,9.337ZM14.891,11.52L14.89,11.52C14.834,13.447 13.35,15 11.517,15L11.19,15C10.668,15 10.245,14.577 10.245,14.055L10.245,8.761C10.245,8.239 10.668,7.816 11.19,7.816L11.517,7.816C12.433,7.816 13.263,8.205 13.871,8.834L13.871,7.891C13.871,4.649 11.242,2.021 8,2.021C4.758,2.021 2.129,4.649 2.129,7.891L2.129,8.834C2.737,8.205 3.567,7.816 4.483,7.816L4.81,7.816C5.332,7.816 5.755,8.239 5.755,8.761L5.755,14.055C5.755,14.577 5.332,15 4.81,15L4.483,15C2.627,15 1.128,13.408 1.109,11.447L1.109,7.891C1.109,4.085 4.194,1 8,1C11.806,1 14.891,4.085 14.891,7.891L14.891,11.52Z"/>
</svg>
